images/11949101.svg

<?xml version="1.0" encoding="UTF-8"?>
<svg xmlns="http://www.w3.org/2000/svg" xmlns:xlink="http://www.w3.org/1999/xlink" width="300pt" height="300pt" viewBox="0 0 300 300" version="1.1">
<defs>
<g>
<symbol overflow="visible" id="glyph0-0">
<path style="stroke:none;" d="M 0.546875 1.9375 L 0.546875 -7.75 L 6.046875 -7.75 L 6.046875 1.9375 Z M 1.171875 1.328125 L 5.4375 1.328125 L 5.4375 -7.140625 L 1.171875 -7.140625 Z M 1.171875 1.328125 "/>
</symbol>
<symbol overflow="visible" id="glyph0-1">
<path style="stroke:none;" d="M 4.328125 -7.28125 C 3.546875 -7.28125 2.921875 -6.984375 2.453125 -6.390625 C 1.992188 -5.804688 1.765625 -5.007812 1.765625 -4 C 1.765625 -2.988281 1.992188 -2.1875 2.453125 -1.59375 C 2.921875 -1.007812 3.546875 -0.71875 4.328125 -0.71875 C 5.117188 -0.71875 5.742188 -1.007812 6.203125 -1.59375 C 6.660156 -2.1875 6.890625 -2.988281 6.890625 -4 C 6.890625 -5.007812 6.660156 -5.804688 6.203125 -6.390625 C 5.742188 -6.984375 5.117188 -7.28125 4.328125 -7.28125 Z M 4.328125 -8.171875 C 5.453125 -8.171875 6.351562 -7.789062 7.03125 -7.03125 C 7.707031 -6.28125 8.046875 -5.269531 8.046875 -4 C 8.046875 -2.738281 7.707031 -1.726562 7.03125 -0.96875 C 6.351562 -0.21875 5.453125 0.15625 4.328125 0.15625 C 3.203125 0.15625 2.300781 -0.21875 1.625 -0.96875 C 0.957031 -1.71875 0.625 -2.726562 0.625 -4 C 0.625 -5.269531 0.957031 -6.28125 1.625 -7.03125 C 2.300781 -7.789062 3.203125 -8.171875 4.328125 -8.171875 Z M 4.328125 -8.171875 "/>
</symbol>
<symbol overflow="visible" id="glyph0-2">
<path style="stroke:none;" d="M 1.078125 -8.015625 L 2.546875 -8.015625 L 6.09375 -1.3125 L 6.09375 -8.015625 L 7.15625 -8.015625 L 7.15625 0 L 5.6875 0 L 2.125 -6.703125 L 2.125 0 L 1.078125 0 Z M 1.078125 -8.015625 "/>
</symbol>
<symbol overflow="visible" id="glyph0-3">
<path style="stroke:none;" d="M 1.078125 -8.015625 L 2.171875 -8.015625 L 2.171875 -4.734375 L 6.109375 -4.734375 L 6.109375 -8.015625 L 7.1875 -8.015625 L 7.1875 0 L 6.109375 0 L 6.109375 -3.8125 L 2.171875 -3.8125 L 2.171875 0 L 1.078125 0 Z M 1.078125 -8.015625 "/>
</symbol>
</g>
</defs>
<g id="surface29601">
<rect x="0" y="0" width="300" height="300" style="fill:rgb(100%,100%,100%);fill-opacity:1;stroke:none;"/>
<path style="fill:none;stroke-width:1.2;stroke-linecap:butt;stroke-linejoin:miter;stroke:rgb(0%,0%,0%);stroke-opacity:1;stroke-miterlimit:10;" d="M 55.898438 77.515625 L 64.003906 88.15625 "/>
<path style="fill:none;stroke-width:1.2;stroke-linecap:butt;stroke-linejoin:miter;stroke:rgb(100%,0%,0%);stroke-opacity:1;stroke-miterlimit:10;" d="M 64.003906 88.15625 L 72.113281 98.796875 "/>
<path style="fill:none;stroke-width:1.2;stroke-linecap:butt;stroke-linejoin:miter;stroke:rgb(100%,0%,0%);stroke-opacity:1;stroke-miterlimit:10;" d="M 72.113281 98.796875 L 66.949219 111.140625 "/>
<path style="fill:none;stroke-width:1.2;stroke-linecap:butt;stroke-linejoin:miter;stroke:rgb(0%,0%,0%);stroke-opacity:1;stroke-miterlimit:10;" d="M 66.949219 111.140625 L 61.789062 123.480469 "/>
<path style=" stroke:none;fill-rule:nonzero;fill:rgb(100%,100%,100%);fill-opacity:1;" d="M 68.113281 92.296875 L 77.113281 92.296875 L 77.113281 105.296875 L 68.113281 105.296875 Z M 68.113281 92.296875 "/>
<g style="fill:rgb(100%,0%,0%);fill-opacity:1;">
  <use xlink:href="#glyph0-1" x="68.113281" y="102.198242"/>
</g>
<path style="fill:none;stroke-width:1.2;stroke-linecap:butt;stroke-linejoin:miter;stroke:rgb(0%,0%,0%);stroke-opacity:1;stroke-miterlimit:10;" d="M 61.390625 120.359375 L 48.121094 122.058594 "/>
<path style="fill:none;stroke-width:1.2;stroke-linecap:butt;stroke-linejoin:miter;stroke:rgb(100%,0%,0%);stroke-opacity:1;stroke-miterlimit:10;" d="M 48.121094 122.058594 L 34.851562 123.761719 "/>
<path style="fill:none;stroke-width:1.2;stroke-linecap:butt;stroke-linejoin:miter;stroke:rgb(0%,0%,0%);stroke-opacity:1;stroke-miterlimit:10;" d="M 62.1875 126.605469 L 48.917969 128.304688 "/>
<path style="fill:none;stroke-width:1.2;stroke-linecap:butt;stroke-linejoin:miter;stroke:rgb(100%,0%,0%);stroke-opacity:1;stroke-miterlimit:10;" d="M 48.917969 128.304688 L 35.648438 130.003906 "/>
<path style=" stroke:none;fill-rule:nonzero;fill:rgb(0%,0%,0%);fill-opacity:1;" d="M 78.003906 144.765625 L 65.542969 120.621094 L 58.03125 126.34375 Z M 78.003906 144.765625 "/>
<path style=" stroke:none;fill-rule:nonzero;fill:rgb(100%,100%,100%);fill-opacity:1;" d="M 26.25 120.382812 L 35.25 120.382812 L 35.25 133.382812 L 26.25 133.382812 Z M 26.25 120.382812 "/>
<g style="fill:rgb(100%,0%,0%);fill-opacity:1;">
  <use xlink:href="#glyph0-1" x="26.25" y="130.28418"/>
</g>
<path style="fill:none;stroke-width:1.2;stroke-linecap:butt;stroke-linejoin:miter;stroke:rgb(0%,0%,0%);stroke-opacity:1;stroke-miterlimit:10;" d="M 78.003906 144.765625 L 70.316406 170.390625 "/>
<path style="fill:none;stroke-width:1.2;stroke-linecap:butt;stroke-linejoin:miter;stroke:rgb(0%,0%,100%);stroke-opacity:1;stroke-miterlimit:10;" d="M 104.753906 144.15625 L 91.378906 144.460938 "/>
<path style="fill:none;stroke-width:1.2;stroke-linecap:butt;stroke-linejoin:miter;stroke:rgb(0%,0%,0%);stroke-opacity:1;stroke-miterlimit:10;" d="M 91.378906 144.460938 L 78.003906 144.765625 "/>
<path style="fill:none;stroke-width:1;stroke-linecap:butt;stroke-linejoin:miter;stroke:rgb(0%,0%,0%);stroke-opacity:1;stroke-miterlimit:10;" d="M 92.316406 185.621094 L 92.316406 185.621094 M 90.183594 183.511719 L 89.589844 184.371094 M 88.050781 181.402344 L 86.863281 183.117188 M 85.917969 179.292969 L 84.136719 181.863281 M 83.785156 177.179688 L 81.410156 180.609375 M 81.652344 175.070312 L 78.6875 179.355469 M 79.523438 172.960938 L 75.960938 178.105469 M 77.390625 170.851562 L 73.234375 176.851562 M 75.257812 168.738281 L 70.507812 175.597656 M 73.125 166.628906 L 67.78125 174.34375 M 73.003906 166.511719 L 67.628906 174.273438 "/>
<path style="fill:none;stroke-width:1.2;stroke-linecap:butt;stroke-linejoin:miter;stroke:rgb(0%,0%,0%);stroke-opacity:1;stroke-miterlimit:10;" d="M 92.316406 185.621094 L 95.714844 212.160156 "/>
<path style="fill:none;stroke-width:1.2;stroke-linecap:butt;stroke-linejoin:miter;stroke:rgb(0%,0%,0%);stroke-opacity:1;stroke-miterlimit:10;" d="M 113.597656 169.40625 L 92.316406 185.621094 "/>
<path style="fill:none;stroke-width:1.2;stroke-linecap:butt;stroke-linejoin:miter;stroke:rgb(0%,0%,0%);stroke-opacity:1;stroke-miterlimit:10;" d="M 95.714844 212.160156 L 120.398438 222.484375 "/>
<path style="fill:none;stroke-width:1.2;stroke-linecap:butt;stroke-linejoin:miter;stroke:rgb(0%,0%,0%);stroke-opacity:1;stroke-miterlimit:10;" d="M 120.398438 222.484375 L 141.683594 206.269531 "/>
<path style="fill:none;stroke-width:1.2;stroke-linecap:butt;stroke-linejoin:miter;stroke:rgb(0%,0%,0%);stroke-opacity:1;stroke-miterlimit:10;" d="M 141.683594 206.269531 L 138.28125 179.730469 "/>
<path style=" stroke:none;fill-rule:nonzero;fill:rgb(0%,0%,0%);fill-opacity:1;" d="M 141.683594 206.269531 L 164.546875 220.949219 L 168.1875 212.238281 Z M 141.683594 206.269531 "/>
<path style="fill:none;stroke-width:1;stroke-linecap:butt;stroke-linejoin:miter;stroke:rgb(0%,0%,0%);stroke-opacity:1;stroke-miterlimit:10;" d="M 113.597656 169.40625 L 113.597656 169.40625 M 116.121094 171.027344 L 116.523438 170.066406 M 118.648438 172.648438 L 119.449219 170.726562 M 121.171875 174.269531 L 122.378906 171.382812 M 123.695312 175.890625 L 125.304688 172.042969 M 126.21875 177.511719 L 128.230469 172.703125 M 128.742188 179.132812 L 131.15625 173.363281 M 131.269531 180.753906 L 134.085938 174.019531 M 133.792969 182.375 L 137.011719 174.679688 M 136.316406 183.996094 L 139.9375 175.339844 M 136.460938 184.085938 L 140.105469 175.375 "/>
<path style="fill:none;stroke-width:1.2;stroke-linecap:butt;stroke-linejoin:miter;stroke:rgb(0%,0%,0%);stroke-opacity:1;stroke-miterlimit:10;" d="M 113.597656 169.40625 L 109.175781 156.78125 "/>
<path style="fill:none;stroke-width:1.2;stroke-linecap:butt;stroke-linejoin:miter;stroke:rgb(0%,0%,100%);stroke-opacity:1;stroke-miterlimit:10;" d="M 109.175781 156.78125 L 104.753906 144.15625 "/>
<path style="fill:none;stroke-width:1.2;stroke-linecap:butt;stroke-linejoin:miter;stroke:rgb(0%,0%,100%);stroke-opacity:1;stroke-miterlimit:10;" d="M 104.753906 144.15625 L 112.367188 133.15625 "/>
<path style="fill:none;stroke-width:1.2;stroke-linecap:butt;stroke-linejoin:miter;stroke:rgb(0%,0%,0%);stroke-opacity:1;stroke-miterlimit:10;" d="M 112.367188 133.15625 L 119.984375 122.15625 "/>
<path style=" stroke:none;fill-rule:nonzero;fill:rgb(100%,100%,100%);fill-opacity:1;" d="M 100.753906 137.65625 L 108.753906 137.65625 L 108.753906 150.65625 L 100.753906 150.65625 Z M 100.753906 137.65625 "/>
<g style="fill:rgb(0%,0%,100%);fill-opacity:1;">
  <use xlink:href="#glyph0-2" x="100.753906" y="147.557617"/>
</g>
<path style="fill:none;stroke-width:1.2;stroke-linecap:butt;stroke-linejoin:miter;stroke:rgb(0%,0%,0%);stroke-opacity:1;stroke-miterlimit:10;" d="M 119.984375 122.15625 L 146.648438 124.347656 "/>
<path style="fill:none;stroke-width:1.2;stroke-linecap:butt;stroke-linejoin:miter;stroke:rgb(0%,0%,0%);stroke-opacity:1;stroke-miterlimit:10;" d="M 146.648438 124.347656 L 158.085938 148.539062 "/>
<path style="fill:none;stroke-width:1.2;stroke-linecap:butt;stroke-linejoin:miter;stroke:rgb(0%,0%,0%);stroke-opacity:1;stroke-miterlimit:10;" d="M 153.484375 124.078125 L 162.632812 143.429688 "/>
<path style="fill:none;stroke-width:1.2;stroke-linecap:butt;stroke-linejoin:miter;stroke:rgb(0%,0%,0%);stroke-opacity:1;stroke-miterlimit:10;" d="M 161.878906 102.351562 L 146.648438 124.347656 "/>
<path style="fill:none;stroke-width:1.2;stroke-linecap:butt;stroke-linejoin:miter;stroke:rgb(0%,0%,0%);stroke-opacity:1;stroke-miterlimit:10;" d="M 158.085938 148.539062 L 184.75 150.726562 "/>
<path style="fill:none;stroke-width:1.2;stroke-linecap:butt;stroke-linejoin:miter;stroke:rgb(0%,0%,0%);stroke-opacity:1;stroke-miterlimit:10;" d="M 184.75 150.726562 L 199.980469 128.730469 "/>
<path style="fill:none;stroke-width:1.2;stroke-linecap:butt;stroke-linejoin:miter;stroke:rgb(0%,0%,0%);stroke-opacity:1;stroke-miterlimit:10;" d="M 181.097656 144.945312 L 193.28125 127.347656 "/>
<path style="fill:none;stroke-width:1.2;stroke-linecap:butt;stroke-linejoin:miter;stroke:rgb(0%,0%,0%);stroke-opacity:1;stroke-miterlimit:10;" d="M 199.980469 128.730469 L 188.546875 104.542969 "/>
<path style="fill:none;stroke-width:1.2;stroke-linecap:butt;stroke-linejoin:miter;stroke:rgb(0%,0%,0%);stroke-opacity:1;stroke-miterlimit:10;" d="M 199.980469 128.730469 L 226.648438 130.921875 "/>
<path style="fill:none;stroke-width:1.2;stroke-linecap:butt;stroke-linejoin:miter;stroke:rgb(0%,0%,0%);stroke-opacity:1;stroke-miterlimit:10;" d="M 188.546875 104.542969 L 161.878906 102.351562 "/>
<path style="fill:none;stroke-width:1.2;stroke-linecap:butt;stroke-linejoin:miter;stroke:rgb(0%,0%,0%);stroke-opacity:1;stroke-miterlimit:10;" d="M 185.363281 110.597656 L 164.03125 108.84375 "/>
<path style="fill:none;stroke-width:1.2;stroke-linecap:butt;stroke-linejoin:miter;stroke:rgb(0%,0%,0%);stroke-opacity:1;stroke-miterlimit:10;" d="M 229.234375 132.710938 L 236.851562 121.714844 "/>
<path style="fill:none;stroke-width:1.2;stroke-linecap:butt;stroke-linejoin:miter;stroke:rgb(100%,0%,0%);stroke-opacity:1;stroke-miterlimit:10;" d="M 236.851562 121.714844 L 244.464844 110.714844 "/>
<path style="fill:none;stroke-width:1.2;stroke-linecap:butt;stroke-linejoin:miter;stroke:rgb(0%,0%,0%);stroke-opacity:1;stroke-miterlimit:10;" d="M 224.058594 129.128906 L 231.675781 118.128906 "/>
<path style="fill:none;stroke-width:1.2;stroke-linecap:butt;stroke-linejoin:miter;stroke:rgb(100%,0%,0%);stroke-opacity:1;stroke-miterlimit:10;" d="M 231.675781 118.128906 L 239.289062 107.132812 "/>
<path style="fill:none;stroke-width:1.2;stroke-linecap:butt;stroke-linejoin:miter;stroke:rgb(0%,0%,0%);stroke-opacity:1;stroke-miterlimit:10;" d="M 226.648438 130.921875 L 232.367188 143.015625 "/>
<path style="fill:none;stroke-width:1.2;stroke-linecap:butt;stroke-linejoin:miter;stroke:rgb(100%,0%,0%);stroke-opacity:1;stroke-miterlimit:10;" d="M 232.367188 143.015625 L 238.082031 155.109375 "/>
<path style=" stroke:none;fill-rule:nonzero;fill:rgb(100%,100%,100%);fill-opacity:1;" d="M 237.878906 102.421875 L 246.878906 102.421875 L 246.878906 115.421875 L 237.878906 115.421875 Z M 237.878906 102.421875 "/>
<g style="fill:rgb(100%,0%,0%);fill-opacity:1;">
  <use xlink:href="#glyph0-1" x="237.878906" y="112.323242"/>
</g>
<path style="fill:none;stroke-width:1.2;stroke-linecap:butt;stroke-linejoin:miter;stroke:rgb(100%,0%,0%);stroke-opacity:1;stroke-miterlimit:10;" d="M 238.082031 155.109375 L 251.417969 156.207031 "/>
<path style="fill:none;stroke-width:1.2;stroke-linecap:butt;stroke-linejoin:miter;stroke:rgb(0%,0%,0%);stroke-opacity:1;stroke-miterlimit:10;" d="M 251.417969 156.207031 L 264.75 157.300781 "/>
<path style=" stroke:none;fill-rule:nonzero;fill:rgb(100%,100%,100%);fill-opacity:1;" d="M 234.082031 148.609375 L 243.082031 148.609375 L 243.082031 161.609375 L 234.082031 161.609375 Z M 234.082031 148.609375 "/>
<g style="fill:rgb(100%,0%,0%);fill-opacity:1;">
  <use xlink:href="#glyph0-1" x="234.082031" y="158.510742"/>
</g>
<path style=" stroke:none;fill-rule:nonzero;fill:rgb(100%,100%,100%);fill-opacity:1;" d="M 158.367188 210.09375 L 175.367188 210.09375 L 175.367188 223.09375 L 158.367188 223.09375 Z M 158.367188 210.09375 "/>
<g style="fill:rgb(100%,0%,0%);fill-opacity:1;">
  <use xlink:href="#glyph0-1" x="158.367188" y="219.995117"/>
  <use xlink:href="#glyph0-3" x="166.767578" y="219.995117"/>
</g>
</g>
</svg>

<svg xmlns="http://www.w3.org/2000/svg" xmlns:xlink="http://www.w3.org/1999/xlink" width="300pt" height="300pt" viewBox="0 0 300 300"><defs><symbol overflow="visible"><path d="M.547 1.938V-7.75h5.5v9.688zm.625-.61h4.266v-8.47H1.171zm0 0"/></symbol><symbol overflow="visible" id="a"><path d="M4.328-7.28c-.78 0-1.406.296-1.875.89-.46.585-.687 1.382-.687 2.39 0 1.012.226 1.813.687 2.406.47.586 1.094.875 1.875.875.79 0 1.414-.288 1.875-.874.457-.593.688-1.394.688-2.406 0-1.008-.23-1.805-.687-2.39-.46-.594-1.086-.89-1.875-.89zm0-.892c1.125 0 2.024.383 2.703 1.14C7.708-6.28 8.048-5.27 8.048-4c0 1.262-.34 2.273-1.016 3.03C6.353-.22 5.454.157 4.33.157S2.3-.22 1.625-.97c-.668-.75-1-1.757-1-3.03 0-1.27.332-2.28 1-3.03.676-.76 1.578-1.142 2.703-1.142zm0 0"/></symbol><symbol overflow="visible" id="b"><path d="M1.078-8.016h1.47l3.546 6.704v-6.704h1.062V0H5.688L2.124-6.703V0H1.078zm0 0"/></symbol><symbol overflow="visible" id="c"><path d="M1.078-8.016h1.094v3.282H6.11v-3.282h1.077V0H6.11v-3.813H2.17V0H1.078zm0 0"/></symbol></defs><g><path fill="#fff" d="M0 0h300v300H0z"/><path d="M55.898 77.516l8.106 10.64" stroke-width="1.2" stroke="#000" stroke-miterlimit="10" fill="none"/><path d="M64.004 88.156l8.11 10.64M72.113 98.797L66.95 111.14" stroke-width="1.2" stroke="#f00" stroke-miterlimit="10" fill="none"/><path d="M66.95 111.14l-5.16 12.34" stroke-width="1.2" stroke="#000" stroke-miterlimit="10" fill="none"/><path d="M68.113 92.297h9v13h-9zm0 0" fill="#fff"/><use xlink:href="#a" x="68.113" y="102.198" fill="#f00"/><path d="M61.39 120.36l-13.27 1.7" stroke-width="1.2" stroke="#000" stroke-miterlimit="10" fill="none"/><path d="M48.12 122.06l-13.268 1.702" stroke-width="1.2" stroke="#f00" stroke-miterlimit="10" fill="none"/><path d="M62.188 126.605l-13.27 1.7" stroke-width="1.2" stroke="#000" stroke-miterlimit="10" fill="none"/><path d="M48.918 128.305l-13.27 1.7" stroke-width="1.2" stroke="#f00" stroke-miterlimit="10" fill="none"/><path d="M78.004 144.766l-12.46-24.145-7.513 5.724zm0 0"/><path d="M26.25 120.383h9v13h-9zm0 0" fill="#fff"/><use xlink:href="#a" x="26.25" y="130.284" fill="#f00"/><path d="M78.004 144.766l-7.688 25.625" stroke-width="1.2" stroke="#000" stroke-miterlimit="10" fill="none"/><path d="M104.754 144.156l-13.375.305" stroke-width="1.2" stroke="#00f" stroke-miterlimit="10" fill="none"/><path d="M91.38 144.46l-13.376.306" stroke-width="1.2" stroke="#000" stroke-miterlimit="10" fill="none"/><path d="M92.316 185.62m-2.132-2.108l-.594.86m-1.54-2.97l-1.187 1.715m-.945-3.824l-1.78 2.57m-.353-4.683l-2.375 3.43m.242-5.54l-2.965 4.285m.836-6.394l-3.562 5.145m1.43-7.253l-4.156 6m2.024-8.114l-4.75 6.86m2.617-8.97l-5.344 7.716m5.224-7.832l-5.375 7.76" stroke="#000" stroke-miterlimit="10" fill="none"/><path d="M92.316 185.62l3.4 26.54M113.598 169.406L92.316 185.62M95.715 212.16l24.683 10.324M120.398 222.484l21.286-16.214M141.684 206.27l-3.403-26.54" stroke-width="1.2" stroke="#000" stroke-miterlimit="10" fill="none"/><path d="M141.684 206.27l22.863 14.68 3.64-8.712zm0 0"/><path d="M113.598 169.406m2.523 1.62l.403-.96m2.125 2.582l.8-1.92m1.724 3.542l1.207-2.887m1.315 4.508l1.61-3.847m.914 5.47l2.01-4.81m.512 6.43l2.414-5.77m.114 7.39l2.816-6.733m-.293 8.355l3.22-7.695m-.697 9.316l3.62-8.656m-3.475 8.746l3.645-8.71" stroke="#000" stroke-miterlimit="10" fill="none"/><path d="M113.598 169.406l-4.422-12.625" stroke-width="1.2" stroke="#000" stroke-miterlimit="10" fill="none"/><path d="M109.176 156.78l-4.422-12.624M104.754 144.156l7.613-11" stroke-width="1.2" stroke="#00f" stroke-miterlimit="10" fill="none"/><path d="M112.367 133.156l7.617-11" stroke-width="1.2" stroke="#000" stroke-miterlimit="10" fill="none"/><path d="M100.754 137.656h8v13h-8zm0 0" fill="#fff"/><use xlink:href="#b" x="100.754" y="147.558" fill="#00f"/><path d="M119.984 122.156l26.664 2.192M146.648 124.348l11.438 24.19M153.484 124.078l9.15 19.352M161.88 102.352l-15.232 21.996M158.086 148.54l26.664 2.187M184.75 150.727l15.23-21.997M181.098 144.945l12.183-17.597M199.98 128.73l-11.433-24.187M199.98 128.73l26.668 2.192M188.547 104.543l-26.668-2.19M185.363 110.598l-21.332-1.754M229.234 132.71l7.618-10.995" stroke-width="1.2" stroke="#000" stroke-miterlimit="10" fill="none"/><path d="M236.852 121.715l7.613-11" stroke-width="1.2" stroke="#f00" stroke-miterlimit="10" fill="none"/><path d="M224.06 129.13l7.616-11" stroke-width="1.2" stroke="#000" stroke-miterlimit="10" fill="none"/><path d="M231.676 118.13l7.613-10.997" stroke-width="1.2" stroke="#f00" stroke-miterlimit="10" fill="none"/><path d="M226.648 130.922l5.72 12.094" stroke-width="1.2" stroke="#000" stroke-miterlimit="10" fill="none"/><path d="M232.367 143.016l5.715 12.093" stroke-width="1.2" stroke="#f00" stroke-miterlimit="10" fill="none"/><path d="M237.88 102.422h9v13h-9zm0 0" fill="#fff"/><use xlink:href="#a" x="237.879" y="112.323" fill="#f00"/><path d="M238.082 155.11l13.336 1.097" stroke-width="1.2" stroke="#f00" stroke-miterlimit="10" fill="none"/><path d="M251.418 156.207l13.332 1.094" stroke-width="1.2" stroke="#000" stroke-miterlimit="10" fill="none"/><path d="M234.082 148.61h9v13h-9zm0 0" fill="#fff"/><use xlink:href="#a" x="234.082" y="158.511" fill="#f00"/><path d="M158.367 210.094h17v13h-17zm0 0" fill="#fff"/><g fill="#f00"><use xlink:href="#a" x="158.367" y="219.995"/><use xlink:href="#c" x="166.768" y="219.995"/></g></g></svg>
